actions/22x22-light/im-msn.svg

<svg xmlns="http://www.w3.org/2000/svg" viewBox="0 0 22 22">
 <defs id="defs3051">
   <style type="text/css" id="current-color-scheme">
     .ColorScheme-Text {
       color:#4d4d4d;
     }
     </style>
 </defs>
   <path
      style="fill:currentColor;fill-opacity:1;stroke:none"
      d="m18.289062 3-7.77539 1.2421875v6.2246095h7.77539zm-8.7480464 1.3964844-5.8320312.8691406.0058594 5.201172h5.8261718zm-5.828125 7.1367186v5.253906l5.828125.876953v-6.130859zm6.8007814 0v6.265625l7.77539 1.201172.001954-7.466797z"
      class="ColorScheme-Text" />
</svg>

<svg xmlns="http://www.w3.org/2000/svg" viewBox="0 0 22 22">
  <defs id="defs3051">
    <style type="text/css" id="current-color-scheme">
      .ColorScheme-Text {
        color:#4d4d4d
      }
      </style>
  </defs>
 <path 
     style="fill:currentColor;fill-opacity:1;stroke:none"      
	 class="ColorScheme-Text"
        d="M 18.289062 3 L 10.513672 4.2421875 L 10.513672 10.466797 L 18.289062 10.466797 L 18.289062 3 z M 9.5410156 4.3964844 L 3.7089844 5.265625 L 3.7148438 10.466797 L 9.5410156 10.466797 L 9.5410156 4.3964844 z M 3.7128906 11.533203 L 3.7128906 16.787109 L 9.5410156 17.664062 L 9.5410156 11.533203 L 3.7128906 11.533203 z M 10.513672 11.533203 L 10.513672 17.798828 L 18.289062 19 L 18.291016 11.533203 L 10.513672 11.533203 z "
     />
</svg>
